icon-svg/christmas-lights.svg

<svg xmlns="http://www.w3.org/2000/svg" viewBox="0 0 24 24"><path fill="#44739e" d="M21.388 11.378H18.47v-.779a2.6 2.6 0 0 0 1.096-2.308c0-1.825-1.181-4.532-2.813-4.532s-2.812 2.707-2.812 4.532a2.6 2.6 0 0 0 1.096 2.308v.783H8.974v-.783a2.6 2.6 0 0 0 1.095-2.308c0-1.825-1.181-4.532-2.812-4.532S4.444 6.462 4.444 8.287a2.6 2.6 0 0 0 1.101 2.308v.783H2.622a.622.622 0 0 0 0 1.244h7.666v.779a2.6 2.6 0 0 0-1.1 2.308c0 1.825 1.18 4.532 2.812 4.532s2.812-2.707 2.812-4.532a2.6 2.6 0 0 0-1.1-2.308v-.783h7.666a.622.622 0 0 0 0-1.244m-4.625-6.378c.546 0 1.569 1.743 1.569 3.289 0 .651-.163 1.517-1.569 1.517s-1.568-.866-1.568-1.517c0-1.545 1.022-3.289 1.568-3.289m-.473 6.024a4.2 4.2 0 0 0 .947 0v.356h-.947ZM7.257 4.996c.546 0 1.568 1.745 1.568 3.291 0 .651-.162 1.517-1.568 1.517s-1.569-.866-1.569-1.517c0-1.547 1.023-3.291 1.569-3.291m-.474 6.024a4.2 4.2 0 0 0 .948 0v.356h-.948Zm5.222 7.984c-.545 0-1.569-1.743-1.569-3.289 0-.651.163-1.517 1.569-1.517s1.569.866 1.569 1.517c0 1.544-1.024 3.289-1.569 3.289m.473-6.024a4 4 0 0 0-.473-.029 4 4 0 0 0-.473.027v-.356h.946Z"/></svg>

<?xml version="1.0" encoding="UTF-8"?>
<svg width="24px" fill="#44739e" height="24px" viewBox="0 0 24 24" version="1.1" xmlns="http://www.w3.org/2000/svg" xmlns:xlink="http://www.w3.org/1999/xlink">
            <path d="M 21.378,11.378 H 18.462 V 10.6 a 2.6,2.6 0 0 0 1.095,-2.307 c 0,-1.824 -1.18,-4.53 -2.811,-4.53 -1.631,0 -2.811,2.706 -2.811,4.53 A 2.6,2.6 0 0 0 15.03,10.6 v 0.782 H 8.971 V 10.6 a 2.6,2.6 0 0 0 1.094,-2.307 c 0,-1.824 -1.18,-4.53 -2.811,-4.53 -1.631,0 -2.811,2.702 -2.811,4.526 a 2.6,2.6 0 0 0 1.1,2.307 v 0.782 H 2.622 a 0.622,0.622 0 0 0 0,1.244 h 7.662 V 13.4 a 2.6,2.6 0 0 0 -1.1,2.307 c 0,1.824 1.18,4.53 2.811,4.53 1.631,0 2.811,-2.706 2.811,-4.53 a 2.6,2.6 0 0 0 -1.1,-2.307 v -0.782 h 7.662 a 0.622,0.622 0 0 0 0,-1.244 M 16.746,5 c 0.545,0 1.568,1.742 1.568,3.287 0,0.651 -0.163,1.516 -1.568,1.516 -1.405,0 -1.568,-0.865 -1.568,-1.516 C 15.178,6.743 16.2,5 16.746,5 m -0.473,6.02 a 4.157,4.157 0 0 0 0.946,0 v 0.356 H 16.273 Z M 7.254,5 C 7.8,5 8.822,6.744 8.822,8.289 8.822,8.94 8.66,9.805 7.254,9.805 5.848,9.805 5.686,8.94 5.686,8.289 5.686,6.743 6.709,5 7.254,5 m -0.473,6.02 a 4.165,4.165 0 0 0 0.947,0 v 0.356 H 6.781 Z M 12,19 c -0.545,0 -1.568,-1.742 -1.568,-3.287 0,-0.651 0.163,-1.516 1.568,-1.516 1.405,0 1.568,0.865 1.568,1.516 C 13.568,17.256 12.545,19 12,19 m 0.473,-6.02 A 4.154,4.154 0 0 0 12,12.951 4,4 0 0 0 11.527,12.978 v -0.356 h 0.946 z"/>

</svg>
